X:1
T:19. Høgferd
T:19. Høgferd
T:Symra
T:Chr. Haslerud
T:Ivar Aasen
C:Chr. Haslerud
Z:Ivar Aasen
%%score [ 1 2 3 4 ]
L:1/8
Q:1/4=114
M:6/8
K:F
V:1 treble nm="Soprano"
V:2 treble nm="Alto"
V:3 treble-8 nm="Tenor"
V:4 bass nm="Bass"
V:1
!f!"^Raskt" c | (cd) =B (cA) F |!>(! G2 E!>)! C z C |!<(! (CD) E!<)! (FG) A | G3- G z!f! c | %5
w: Alt|det _ som no _ skal|du- * ga, det|ly- * ter ve- * ra|stort; _ for|
 (cd) =B (cA) F | G2 E C z G | c2 e d2 d | c3- c z!p! c | c2 c (cB) A | B3 G z G | B2 B (BA) G | %12
w: upp _ i Hög- * di|vil- * ja no|al- le Folk so|fort. _ Det|teik- nar til, _ at|al- le den|sa- me Hu- * gen|
 A3- A z!f! c | f2 d c2 B | A3 G z!p! d | c2 C D2 E | F3- F |] %17
w: faa _ aa|fa- ra som dei|sto- re, og|ik- kje som dei|smaa. _|
V:2
!f! F | F2 F F2 F |!>(! E2 C!>)! C z C |!<(! C2 C!<)! (CE) F | E3- E z!f! F | F2 F F2 F | %6
w: Alt|det som no skal|du- * ga, det|ly- ter ve- * ra|stort; _ for|upp i Hög- di|
 E2 C C z E | G2 c =B2 B | G3- G z!p! E | F2 F (^FG) F | D3 D z D | C2 C (EF) E | F3- F z!f! F | %13
w: vil- * ja no|al- le Folk so|fort. _ Det|teik- nar til, _ at|al- le den|sa- me Hu- * gen|faa _ aa|
 F2 F F2 G | F3 E z!p! B | A2 C B,2 B, | A,3- A, |] %17
w: fa- ra som dei|sto- re, og|ik- kje som dei|smaa. _|
V:3
!f! c | (c=B) d c2 c |!>(! c2 B!>)! B z B |!<(! A2 B!<)! (cB) c | c3- c z!f! c | (c=B) d c2 c | %6
w: Alt|det _ som no skal|du- * ga, det|ly- ter ve- * ra|stort; _ for|upp _ i Hög- di|
 c2 c c z c | e2 g f2 f | e3- e z!p! c | c2 c d2 c | B3 B z B | G2 G c2 c | c3- c z!f! A | %13
w: vil- * ja no|al- le Folk so|fort. _ Det|teik- nar til, at|al- le den|sa- me Hu- gen|faa _ aa|
 B2 B c2 d | c3 c z!p! G | A2 A G2 G | F3- F |] %17
w: fa- ra som dei|sto- re, og|ik- kje som dei|smaa. _|
V:4
!f! A, | (A,^G,) G, A,2 A, |!>(! B,2 G,!>)! E, z E, |!<(! F,2 G,!<)! (A,G,) F, | C,3- C, z!f! A, | %5
w: Alt|det _ som no skal|du- * ga, det|ly- ter ve- * ra|stort; _ for|
 (A,^G,) G, (A,F,) A, | C2 C C, z C | G,2 G, G,2 G, | C,3- C, z!p! B, | A,2 A, D,2 D, | %10
w: upp _ i Hög- * di|vil- * ja no|al- le Folk so|fort. _ Det|teik- nar til, at|
 G,3 G, z F, | E,2 E, C,2 C, | F,3- F, z!f! _E, | D,2 B,, A,,2 B,, | C,3 C, z!p! E, | %15
w: al- le den|sa- me Hu- gen|faa _ aa|fa- ra som dei|sto- re, og|
 F,2 F, C,2 C, | F,,3- F,, |] %17
w: ik- kje som dei|smaa. _|

